public/images/icons/NodeJS.svg

<svg width="185" height="199" viewBox="0 0 185 199" fill="none" xmlns="http://www.w3.org/2000/svg">
<path d="M170.378 139.691L170.414 58.705C170.437 57.3309 169.832 56.3004 168.599 55.6134L94.4568 14.7829C93.8686 14.4563 93.2047 14.285 92.5267 14.285C91.8487 14.285 91.1786 14.4563 90.5789 14.7829L16.4366 55.6489C15.8748 55.96 15.4068 56.4143 15.0814 56.9643C14.756 57.5143 14.5851 58.14 14.5866 58.7761V140.224C14.5866 140.779 14.7265 141.327 14.9936 141.817C15.2607 142.307 15.6466 142.725 16.1164 143.031C25.2241 149.037 54.7529 167.693 54.7174 144.275C54.6937 117.955 54.6937 91.8953 54.7174 66.0964C54.7174 64.0827 55.7135 63.0759 57.7058 63.0759L65.7106 63.0403C67.6318 63.0167 68.5924 63.9643 68.5924 65.8832C68.5449 92.8904 68.5331 120.123 68.5568 147.58C68.5924 168.546 47.8154 174.161 31.7703 166.343C24.2279 162.694 16.6145 158.572 8.92987 153.976C3.90166 150.944 1.3757 146.644 1.35198 141.077C1.30455 112.956 1.30455 85.0962 1.35198 57.4968C1.35211 54.9349 2.03916 52.4219 3.34112 50.2212C4.64307 48.0204 6.51199 46.2129 8.75198 44.9882L84.3174 3.30482C86.8261 1.93314 89.6401 1.21417 92.5001 1.21417C95.36 1.21417 98.174 1.93314 100.683 3.30482L175.786 44.7395C178.273 46.1064 180.348 48.1134 181.794 50.5511C183.239 52.9889 184.003 55.7679 184.004 58.5984V140.402C184.003 143.234 183.243 146.014 181.804 148.451C180.365 150.888 178.299 152.895 175.821 154.261L100.434 195.766C98.1373 197.033 95.5615 197.712 92.9358 197.743C90.3101 197.774 87.716 197.156 85.3847 195.944C76.4904 191.324 67.0981 186.006 57.2078 179.988C57.1817 179.966 57.1604 179.938 57.1457 179.907C57.1311 179.877 57.1234 179.845 57.1234 179.813C57.1234 179.782 57.1311 179.752 57.1457 179.727C57.1604 179.702 57.1817 179.682 57.2078 179.669C61.5481 177.3 66.0664 175.238 70.7626 173.485C70.974 173.409 71.2021 173.382 71.4299 173.406C71.6578 173.431 71.8796 173.507 72.0789 173.627L90.4722 184.253C90.9924 184.555 91.5836 184.718 92.1884 184.724C92.7931 184.73 93.3907 184.58 93.9231 184.288L168.137 143.422C169.631 142.617 170.378 141.373 170.378 139.691Z" fill="#23B45D"/>
<path d="M97.3741 76.4018C95.6554 77.2702 94.3426 78.7741 93.7121 80.5969C93.0817 82.4197 93.1829 84.4191 93.9943 86.1741C95.3937 89.1828 97.7536 90.8885 101.074 91.2913C114.807 92.9614 148.747 92.535 152.661 109.948C155.934 124.446 147.253 135.142 133.449 138.376C113.739 143.031 79.8347 142.143 75.8501 116.451C75.3757 113.442 76.6565 111.938 79.6924 111.938H86.3453C88.6933 111.938 90.0571 113.098 90.4366 115.42C92.8914 130.7 117.973 129.066 129.785 126.472C136.082 125.086 140.636 118.974 137.469 112.755C136.829 111.452 135.833 110.563 134.481 110.09C129.002 108.194 123.452 107.045 117.831 106.643C104.489 105.683 80.1904 104.262 78.5183 86.4584C77.3443 74.1275 85.7404 65.2436 97.1606 62.7205C117.582 58.2075 147.964 59.3446 150.419 85.9964C150.445 86.257 150.415 86.5199 150.333 86.7678C150.251 87.0157 150.118 87.243 149.943 87.4345C149.768 87.626 149.555 87.7774 149.318 87.8787C149.082 87.9799 148.826 88.0288 148.569 88.022H139.533C137.896 87.9983 136.781 87.2165 136.189 85.6766C134.765 81.8388 132.88 77.3613 128.717 75.8332C117.072 71.5215 106.624 71.7111 97.3741 76.4018Z" fill="#23B45D"/>
</svg>

<svg width="185" height="199" fill="none" xmlns="http://www.w3.org/2000/svg"><path d="m170.378 139.691.036-80.986c.023-1.374-.582-2.405-1.815-3.092l-74.142-40.83a3.974 3.974 0 0 0-1.93-.498c-.678 0-1.348.171-1.948.498L16.437 55.649a3.6 3.6 0 0 0-1.356 1.315 3.542 3.542 0 0 0-.494 1.812v81.448c0 .555.14 1.103.407 1.593.267.49.653.908 1.122 1.214 9.108 6.006 38.637 24.662 38.601 1.244-.023-26.32-.023-52.38 0-78.179 0-2.013.997-3.02 2.989-3.02l8.005-.036c1.92-.023 2.881.924 2.881 2.843-.047 27.007-.059 54.24-.035 81.697.035 20.966-20.742 26.581-36.787 18.763-7.542-3.649-15.155-7.771-22.84-12.367-5.028-3.032-7.554-7.332-7.578-12.899-.047-28.121-.047-55.98 0-83.58 0-2.562.687-5.075 1.99-7.276a14.205 14.205 0 0 1 5.41-5.233L84.317 3.305a17.057 17.057 0 0 1 16.366 0l75.103 41.434a15.875 15.875 0 0 1 6.008 5.812 15.794 15.794 0 0 1 2.21 8.047v81.804a15.843 15.843 0 0 1-2.2 8.049 15.817 15.817 0 0 1-5.983 5.81l-75.387 41.505a15.91 15.91 0 0 1-7.498 1.977 15.963 15.963 0 0 1-7.551-1.799c-8.895-4.62-18.287-9.938-28.177-15.956a.242.242 0 0 1-.085-.175c0-.031.008-.061.023-.086a.149.149 0 0 1 .062-.058 104.617 104.617 0 0 1 13.555-6.184c.211-.076.44-.103.667-.079.228.025.45.101.649.221l18.393 10.626c.52.302 1.112.465 1.716.471a3.535 3.535 0 0 0 1.735-.436l74.214-40.866c1.494-.805 2.241-2.049 2.241-3.731Z" fill="#23B45D"/><path d="M97.374 76.402a7.413 7.413 0 0 0-3.662 4.195 7.472 7.472 0 0 0 .282 5.577c1.4 3.009 3.76 4.714 7.08 5.117 13.733 1.67 47.673 1.244 51.587 18.657 3.273 14.498-5.408 25.194-19.212 28.428-19.71 4.655-53.614 3.767-57.599-21.925-.474-3.009.806-4.513 3.842-4.513h6.653c2.348 0 3.712 1.16 4.092 3.482 2.454 15.28 27.536 13.646 39.348 11.052 6.297-1.386 10.851-7.498 7.684-13.717-.64-1.303-1.636-2.192-2.988-2.665-5.479-1.896-11.029-3.045-16.65-3.447-13.342-.96-37.64-2.381-39.313-20.185-1.174-12.33 7.222-21.214 18.643-23.737 20.421-4.513 50.803-3.376 53.258 23.275a1.867 1.867 0 0 1-.476 1.439 1.811 1.811 0 0 1-.625.444c-.236.1-.492.15-.749.143h-9.036c-1.637-.024-2.752-.806-3.344-2.345-1.424-3.838-3.309-8.316-7.472-9.844-11.645-4.311-22.093-4.122-31.343.569Z" fill="#23B45D"/></svg>
